!!!CDT:
!!!PTL: Il primo libro de madrigali a tre voci
!!!PPP: Venice
!!!PPR: Ricciardo Amadino
!!!PDT: 1594
!!!PUB-format:
!!!RISM: B 41
!!!AGN: Madrigal
!!!SCT: Tsg19107b
!!!SCA: Tsg19107b
!!!original-voices: 3
!!!extant-voices: 3
!!!complete: Y
!!!final: A
!!!COM: Baccusi, Ippolito
!!!OTL: Ma che? squallido e scuro anco mi piaci
**kern	**text	**kern	**text	**kern	**text
*part3	*part3	*part2	*part2	*part1	*part1
*staff3	*staff3	*staff2	*staff2	*staff1	*staff1
*I"Basso	*	*I"Canto secondo	*	*I"Canto	*
*I'B	*	*I'C secondo	*	*I'C	*
*oclefC3	*	*oclefG2	*	*oclefG2	*
*clefGv2	*	*clefG2	*	*clefG2	*
*k[]	*	*k[]	*	*k[]	*
*omet(C)	*	*omet(C)	*	*omet(C)	*
*M4/2	*	*M4/2	*	*M4/2	*
=1	=1	=1	=1	=1	=1
!!LO:TX:a:t=Seconda parte.
1r	.	2r	.	2ee	Ma
.	.	4r	.	2cc#X	che,
.	.	4a	Ma	.	.
4r	.	2g#X	che,	4r	.
4e	Ma	.	.	4b	Ma
2c#X	che?	4r	.	2ee	che?
.	.	4a	Ma	.	.
=2	=2	=2	=2	=2	=2
4r	.	4b	che?	4r	.
4.f	squa-	4.cc	squa-	4.a	squa-
8f	-li-	8cc	-li-	8a	-li-
4f	-do e	4dd	-do e	4a	-do e
4f	scu-	4cc	scu-	4a	scu-
4e	-ro an-	4cc	-ro an-	4g	-ro an-
4d	-co	4b-X	-co	4f	-co
4cnXi	mi	4a	mi	4e	mi
=3	=3	=3	=3	=3	=3
2B-X	pia-	2g	pia-	2d	pia-
4A	-ci,	4a	-ci,	4e	-ci,
4.A	squa-	4.cc	squa-	4.ee	squa-
8A	-li-	8cc	-li-	8ee	-li-
4A	-do e	4cc	-do e	4ee	-do e
4c	scu-	4cc	scu-	4ee	scu-
4G	-ro an-	4bnXi	-ro an-	4dd	-ro an-
=4	=4	=4	=4	=4	=4
4A	-co	4a	-co	4cc	-co
4e	mi	4g#X	mi	4b	mi
2f	pia-	1a	pia-	2a	pia-
2e	-ci;	.	.	1b	-ci;
4r	.	2g#i	-ci;	.	.
[4e	A-	.	.	.	.
=5	=5	=5	=5	=5	=5
8e]	.	1r	.	2r	.
8e	-ni-	.	.	.	.
4f	-ma	.	.	.	.
2.g	bel-	.	.	4r	.
.	.	.	.	4.b	An-
.	.	2r	.	.	.
.	.	.	.	8b	-ni-
4a	-la,	.	.	4cc	-ma
[2g	se	4r	.	[2dd	bel-
.	.	[4b	A-	.	.
=6	=6	=6	=6	=6	=6
4g]	.	8b]	.	4dd]	.
.	.	8b	-ni-	.	.
4c	quin-	4cc	-ma	4ee	-la,
2.g	-ci en-	2.dd	bel-	2.b	se
8fL	.	4ee	-la,	8aL	.
8eJ	.	.	.	8gJ	.
4f	.	4dd	se	4a	.
4g	-tro	4b	quin-	4dd	quin-
=7	=7	=7	=7	=7	=7
8cL	gi-	4cc	-ci en-	4ee	-ci en-
8d	.	.	.	.	.
8e	.	8b	-tro	4ee	-tro
8fJ	.	8a	gi-	.	.
4g	.	4b	.	4dd	gi-
8fL	.	4cc	.	4ee	.
8eJ	.	.	.	.	.
4d	.	4dd	.	4ff	.
4e	.	8ccL	.	8eeL	.
.	.	8bJ	.	8ddJ	.
4f	.	4a	.	4cc	.
8eL	.	4b	.	4dd	.
8dJ	.	.	.	.	.
=8	=8	=8	=8	=8	=8
4c	.	4cc	.	4ee	.
4d	.	8bL	.	8ddL	.
.	.	8aJ	.	8ccJ	.
2e	.	2g#X	.	2b	.
1A	-re,	1a	-re,	1cc#X	-re,
=9	=9	=9	=9	=9	=9
2r	.	2r	.	2r	.
2.e	S'o-	2.g#X	S'o-	2.b	S'o-
4e	-di il	4g#i	-di il	4b	-di il
2a	mio	4a	mio	4ccnXi	mio
.	.	[4cc	pian-	[4ee	pan-
=10	=10	=10	=10	=10	=10
1f	pian-	8cc]L	.	4ee]	.
.	.	8b	.	.	.
.	.	8a	.	8ddL	.
.	.	8gnXiJ	.	8ccJ	.
.	.	2a	.	2dd	.
1e	-to,	2b	-to,	1ee	-to,
.	.	4r	.	.	.
.	.	4b	e	.	.
=11	=11	=11	=11	=11	=11
4r	.	4b	le	4r	.
4e	e	2g	mie	4b	e
4e	le	.	.	4b	le
4c	mie	4cc	vo-	4ee	mie
4g	vo-	4b	-glie au-	4dd	vo-
4a	-glie au-	2cc	-da-	4cc	-glie au-
2g	-da-	.	.	2dd	-da-
.	.	4b	.	.	.
=12	=12	=12	=12	=12	=12
4c	-ci	4cc	-ci	4ee	-ci
4c	Per-	4g	Per-	4ee	Per-
4c	-do-	4cc	-do-	4ee	-do-
4G	-na il	2b	-na il	4dd	-na il
2A	fur-	.	.	2cc	fur-
.	.	2a	fur-	.	.
[2e	-to e'l	.	.	2b	-to
.	.	4g#X	-to	.	.
=13	=13	=13	=13	=13	=13
4e]	.	4r	.	4r	.
8d	te-	2cc	e'l	2ee	e'l
8c	-me-	.	.	.	.
2.g	-ra-	.	.	.	.
.	.	8b	te-	8dd	te-
.	.	8a	-me-	8cc	-me-
.	.	4b	-ra-	4dd	-ra-
4a	-rio ar-	4.ee	-rio ar-	4cc	-rio ar-
2e	-di-	.	.	4b	-di-
.	.	8dd	.	.	.
.	.	4cc	.	[4a	.
=14	=14	=14	=14	=14	=14
2e	-re,	2b	-di-	4a]	.
.	.	.	.	4g#X	.
4r	.	2a	-re,	2a	-re,
2f	e'l	.	.	.	.
.	.	4r	.	4r	.
8e	te-	2ff	e'l	2dd	e'l
8d	-me-	.	.	.	.
[2a	-ra-	.	.	.	.
.	.	8ee	te-	8cc	te-
.	.	8dd	-me-	8b	-me-
=15	=15	=15	=15	=15	=15
4a]	.	4ee	-ra-	4cc	-ra-
4b-X	-rio ar-	4dd	-rio ar-	4dd	-rio ar-
2a	-di-	2cc#X	-di-	2ee	-di-
1d	-re.	1dd	-re.	1ff#X	-re.
=16	=16	=16	=16	=16	=16
2r	.	2r	.	2r	.
2g	Da	2b	Da	2dd	Da
4f#X	le	4a	le	4dd	le
4.g	pal-	4.b	pal-	4.dd	pal-
8g	-li-	8b	-li-	8dd	-li-
4g	-de	4b	-de	4dd	-de
=17	=17	=17	=17	=17	=17
2c	la-	2cc	la-	2ee	la-
4d	-bra i	4b	-bra i	4dd	-bra i
2fnXi	fred-	2a	fred-	2cc	fred-
4g	-di	4g	-di	4b	-di
2d	ba-	2f#X	ba-	2a	ba-
=18	=18	=18	=18	=18	=18
4d	-ci,	4f#i	-ci,	4a	-ci,
2d	Che	2f#i	Che	2a	Che
4e	sì	4g	sì	4cc	sì
4f	cal-	4a	cal-	4cc	cal-
8f	-di	8a	-di	8cc	-di
8f	spe-	8a	spe-	8cc	spe-
[2f	-rai,	[2a	-rai,	[2cc	-rai,
=19	=19	=19	=19	=19	=19
4f]	.	4a]	.	4cc]	.
4f	vo'	4a	vo'	4cc	vo'
4g	pur	8e	pur	4b	pur
.	.	8f#i	ra-	.	.
4c	ra-	2g	-pi-	4cc	ra-
2d	-pi-	.	.	2a	-pi-
.	.	4f#X	.	.	.
2G	-re.	2g	-re.	2b	-re.
=20	=20	=20	=20	=20	=20
2r	.	2r	.	4dd	Par-
.	.	.	.	8dd	-te
.	.	.	.	8dd	tor-
4g	Par-	4b	Par-	2dd	-rò
8g	-te	8b	-te	.	.
8g	tor-	8b	tor-	.	.
4g	-rò	4b	-rò	4ee	di
4a	di	4cc	di	2cc	sue
4f	sue	4a	sue	.	.
4e	ra-	4cc	ra-	4ee	ra-
=21	=21	=21	=21	=21	=21
4g	-gio-	4b	-gio-	4dd	-gio-
4a	-ni a-	4a	-ni a-	4cc	-ni a
2e	-mor-	2g#X	-mor-	2b	mor-
2e	-te,	2g#i	-te,	2b	-te,
2c	Ba-	2ee	Ba-	2cc	Ba-
=22	=22	=22	=22	=22	=22
2g	-cian-	2dd	-cian-	2b	-cian-
4e	-do	4ee	-do	4cc	-do
2f	que-	2cc	que-	2a	que-
4d	-ste	4dd	-ste	4a	-ste
2e	la-	2b	la-	2g#X	la-
=23	=23	=23	=23	=23	=23
4c	-bra es-	4cc	-bra es-	4a	-bra es-
2d	-san-	2a	-san-	4.f	-san-
.	.	.	.	8gnXi	-gui e
4f	-gui e	4a	-gui e	2a	smor-
2e	smor-	2b	smor-	.	.
.	.	.	.	4g#X	.
2A	-te,	2cc#X	-te,	4a	-te,
.	.	.	.	4ee	Ba-
=24	=24	=24	=24	=24	=24
2r	.	2r	.	4dd	-cian-
.	.	.	.	4b	-do
4r	.	4r	.	4cc	que-
4a	Ba-	4cc#X	Ba-	4a	-ste
4g	-cian-	4dd	-cian-	4b	la-
4e	-do	4ee	-do	4gnXi	-bra es-
4f	que-	4ccnXi	que-	4a	-san-
4d	-ste	4dd	-ste	8gL	.
.	.	.	.	8fJ	.
=25	=25	=25	=25	=25	=25
4e	la-	4b	la-	4g	.
4c#X	-bra es-	4ee	-bra es-	4a	-gui e
4d	-san-	2.dd	-sa-	8fL	smor-
.	.	.	.	8gJ	.
4f	-gui e	.	.	2a	.
1e	smor-	.	.	.	.
.	.	4cc	-gui e	8g#iL	.
.	.	.	.	8f#iJ	.
.	.	2b	smor-	2g#X	.
=26	=26	=26	=26	=26	=26
0Al	-te.	0cc#il	-te.	0al	-te.
==	==	==	==	==	==
*-	*-	*-	*-	*-	*-
!!!system-decoration: [*]
!!!RDF**kern: i = editorial accidental
!!!RDF**kern: l = terminal long
!!!ENC: Emiliano Ricciardi
!!!END: 2019/08
!!!EED: Ricciardi, Emiliano
!!!EEV: 2019/08/23
!!!YEC: Copyright 2019 Emiliano Ricciardi, All Rights Reserved
!!!ONB: Translated from MusicXML on 2019/08/23 and edited by Craig Stuart Sapp
!!@@BEGIN:	VERSEDATA
!!@CATALOGNUM:	Tsg19107
!!@LAST_MODIFIED: 2020/07/12
!!@TITLE:		Ma che? squallido e scuro anco mi piaci
!!@CANTO:		XIX
!!@OTTAVA:	107
!!@MANUSRC:	G-Al, G-Au, G-Br<sub>2</sub>, G-Es<sub>1</sub>, G-Es<sub>2</sub>, G-Es<sub>3</sub>, G-F, G-Fr, G-Fr<sub>1</sub>, G-Fr<sub>2</sub>, G-Mc<sub>1</sub>, G-Mr, G-Mt, G-N
!!@PRINTSRC:	G-1580CM, G-1581B, G-1581CV, G-1581R, G-1581MR, G-1581P, G-1581V, G-1581V<sub>bis</sub>, G-1582C, G-1582M, G-1582MC, G-1582P, G-1582SC, G-1582SC<sub>bis</sub>, G-1583S, G-1584O, G-1584S, G-1585C, G-1585S, G-1588S, G-1589S, G-1590B, G-1590S, G-1592S, G-1593S, G-1594C, G-1595C, G-1597C, G-1598C, G-1599C, G-1600C, G-1600S, G-1601C, G-1601R, G-1602C, G-1604C, G-1604Cl, G-1604F, G-1604P, G-1606B, G-1606B<sub>bis</sub>, G-1606L, G-1607ZR, G-1608DP, G-1609GC, G-1610M, G-1611S, G-1611V, G-1612P, G-1613M, G-1613P, G-1613V, G-1615P, G-1616M, G-1617P, G-1619B, G-1619V, G-1620M, G-1620S, G-1621R, G-1624I, G-1624MT, G-1625C, G-1625S, G-1625SS, G-1626C, G-1626Co, G-1627M, G-1628T, G-1628Tu, G-1630L, G-1630T, G-1632FT, G-1639CF, G-1642M, G-1643I, G-1644P, G-1644S
!!@@BEGIN:	VERSES
!!@ABOUTIT:
!!@ABOUTEN:
!!@EDITOR:	Angelo Solerti
!!@EDITION_TITLE: Gerusalemme liberata. Poema eroico di Torquato Tasso. Edizione critica sui manoscritti e le prime stampe.
!!@EDITION_LOC:	Florence
!!@EDITION_PUB:	G. Barbera
!!@EDITION_DATE:  1895
!!@EDITION_VOL:
!!@EDITION_PAGE:
!!@TRANSLATOR:	Emiliano Ricciardi and Amyrose McCue Gill
!!@VERSE:
!!	Ma che? squallido e scuro anco mi piaci;
!!	Anima bella, se quinci entro gire,
!!	S’odi il mio pianto, alle mie voglie audaci
!!	Perdona il furto, e ’l temerario ardire.
!!	Dalle pallide labbra i freddi baci,
!!	Che più caldi sperai, vuò pur rapire.
!!	Parte torrò di sue ragioni a morte,
!!	Baciando queste labbra esangui e smorte.
!!@TVERSE:
!!	But what [am I saying]? Dismal and dark still you please me;
!!	Beautiful soul, if there within it turns,
!!	If you hear my lament, for my daring desires
!!	Pardon the theft, and the reckless courage.
!!	From pale lips even cold kisses,
!!	Which I hoped [were] warmer, I wish to steal.
!!	I will take some of what belongs to her from death,
!!	Kissing these lips, bloodless and lifeless.
!!@@END:		VERSES
!!@OTHER_CRIT_ED:  Torquato Tasso, <i>Gerusalemme liberata</i>, ed. Lanfranco Caretti, 2 vols. (Bari: Laterza, 1967).
!!@ATTRIBUTION_ABOUT:
!!@DATING:	mid-1560s through 1570s
!!@DEDICATEE:	Duke Alfonso II d'Este
!!@COMMENTARY:
!!@@END:		VERSEDATA
!!@@BEGIN: SETTING
!!@CATALOGNUM:	Tsg19107b
!!@CANTO:		XIX
!!@OTTAVA:	107
!!@TITLE:	Ma che? squallido e scuro anco mi piaci
!!@SETTINGTITLE: Ma che? squalido e scuro anco mi piaci
!!@COMPOSER:	Baccusi, Ippolito
!!@PARTS:		2 of 2
!!@PRINCEPSTITLE:	Il primo libro de madrigali a tre voci
!!@PRINCEPSLOC:	Venice
!!@NORMLOC:	Venice
!!@NORMPUB:	Ricciardo Amadino
!!@NORMPUBSHORT:	Amadino
!!@PRINCEPSPUB:	Ricciardo Amadino
!!@PRINCEPSYEAR:	1594
!!@PRINCEPSRISM:	B 41
!!@OVOICES:	3
!!@EXTANTVOICES:	3
!!@OMENSURATION:	C
!!@OCLEFS:	G2,G2,C3
!!@OTIME:		
!!@OKEYSIG:	-
!!@FINAL:		A
!!@TIMPEDITOR:	Ricciardi, Emiliano
!!@REPRINTS:	
!!@@END: SETTING
